src/next/cmd/lc_importdialog.svg

<svg enable-background="new 0 0 128 128" height="24" viewBox="0 0 24 24" width="24" xmlns="http://www.w3.org/2000/svg" xmlns:xlink="http://www.w3.org/1999/xlink"><linearGradient id="a" gradientUnits="userSpaceOnUse" x1="88.591797" x2="71.262016" y1="96.592697" y2="79.262917"><stop offset="0" stop-color="#fff"/><stop offset="1" stop-color="#555753"/></linearGradient><linearGradient id="b" gradientUnits="userSpaceOnUse" x1="85.219681" x2="61.336319" y1="93.219681" y2="69.336319"><stop offset="0"/><stop offset="1" stop-color="#393b38"/></linearGradient><linearGradient id="c" gradientUnits="userSpaceOnUse" x1="96" x2="88.000198" y1="104" y2="96.000198"><stop offset="0" stop-color="#888a85"/><stop offset=".0072" stop-color="#8c8e89"/><stop offset=".0673" stop-color="#abaca9"/><stop offset=".1347" stop-color="#c5c6c4"/><stop offset=".2115" stop-color="#dbdbda"/><stop offset=".3012" stop-color="#ebebeb"/><stop offset=".4122" stop-color="#f7f7f6"/><stop offset=".5679" stop-color="#fdfdfd"/><stop offset="1" stop-color="#fff"/></linearGradient><radialGradient id="d" cx="102" cy="112.3047" gradientTransform="matrix(.86906733 0 0 .87181541 13.636886 10.31457)" gradientUnits="userSpaceOnUse" r="139.55859"><stop offset="0" stop-color="#535557"/><stop offset=".11366145" stop-color="#898a8c"/><stop offset=".20296688" stop-color="#ececec"/><stop offset=".2363" stop-color="#fafafa"/><stop offset=".2722" stop-color="#fff"/><stop offset=".5313" stop-color="#fafafa"/><stop offset=".8449" stop-color="#ebecec"/><stop offset="1" stop-color="#e1e2e3"/></radialGradient><radialGradient id="e" cx="102.99968" cy="109.0034" gradientUnits="userSpaceOnUse" r="123.92238"><stop offset="0" stop-color="#3e3e3e"/><stop offset=".0151" stop-color="#505050"/><stop offset=".0558" stop-color="#7e7e7e"/><stop offset=".1357" stop-color="#c6c6c6"/><stop offset=".20990001" stop-color="#f1f1f1"/><stop offset=".24349999" stop-color="#fcfcfc"/><stop offset=".2722" stop-color="#fff"/></radialGradient><filter id="f"><feGaussianBlur stdDeviation="1.0394514"/></filter><filter id="g"><feGaussianBlur stdDeviation=".50063244"/></filter><filter id="h"><feGaussianBlur stdDeviation=".40750996"/></filter><filter id="i"><feGaussianBlur stdDeviation=".4901192"/></filter><filter id="j"><feGaussianBlur stdDeviation=".90565481"/></filter><filter id="k"><feGaussianBlur stdDeviation="1.7999096"/></filter><filter id="l"><feGaussianBlur stdDeviation=".89030997"/></filter><linearGradient id="m" gradientTransform="matrix(0 .81954313 -.81954313 0 76.958576 -3.634586)" gradientUnits="userSpaceOnUse" x1="82.834549" x2="82.834549" y1="62.217617" y2="10.156634"><stop offset="0" stop-color="#fefefe"/><stop offset=".23920465" stop-color="#e9eaea"/><stop offset="1" stop-color="#fdfdfd"/></linearGradient><linearGradient id="n" gradientTransform="matrix(0 -1.0293895 1.0293895 0 11.93834 80.22496)" gradientUnits="userSpaceOnUse" x1="9.709708" x2="66.606155" y1="37.262951" y2="37.262951"><stop offset="0"/><stop offset=".60089153"/><stop offset=".60089153" stop-opacity=".588235"/><stop offset=".74199998" stop-color="#3b3b3b" stop-opacity=".72"/><stop offset="1" stop-color="#fff" stop-opacity="0"/></linearGradient><linearGradient id="o" gradientTransform="matrix(0 -1.0293895 1.0293895 0 11.93834 80.22496)" gradientUnits="userSpaceOnUse" x1="1.067787" x2="62.728462" y1="41.08411" y2="41.08411"><stop offset="0"/><stop offset=".06517398"/><stop offset=".56999999" stop-opacity=".588235"/><stop offset=".74199998" stop-color="#3b3b3b" stop-opacity=".72"/><stop offset="1" stop-color="#fff" stop-opacity="0"/></linearGradient><g transform="scale(.1875)"><path d="m23.034102 2.7510856.04082 125.8749744h61.131184c.53 0 1.039-.211 1.414-.586l38.656254-38.460591c.375-.375.586-.884.586-1.414l.0341-85.4143834h-101.862354z" filter="url(#f)" opacity=".553425" transform="matrix(.92495844 0 0 .91967301 3.585144 6.331917)"/><path d="m23.034102 2.7823031.04082 125.8437569h61.131184c.53 0 1.039-.211 1.414-.586l38.656254-38.460591c.375-.375.586-.884.586-1.414l.0341-85.3831659z" filter="url(#f)" opacity=".306849" transform="matrix(.92495844 0 0 .91967301 3.585144 6.331917)"/><path d="m24.954101 4.7134391v121.7823409l58.676001-.0001c.53 0 1.039-.211 1.414-.586l37.312258-37.398524c.375-.375.586-.884.586-1.414l.0341-82.3837169z" filter="url(#g)" opacity=".89589" transform="matrix(.92495844 0 0 .91967301 3.585144 6.331917)"/><path d="m23.034102 3.7478203.04082 124.8782397h61.131184c.53 0 1.039-.211 1.414-.586l38.656254-38.460591c.375-.375.586-.884.586-1.414l.0341-84.4176487h-101.862354z" filter="url(#f)" opacity=".306849" transform="matrix(.92495844 0 0 .91967301 3.585144 6.331917)"/><path d="m26.666653 10.666739v111.999931h54.318295c.470619 0 .92259-.18736 1.255576-.52035l34.540846-34.330095c.33299-.332985.52034-.784957.52034-1.255576l.0315-75.89391z" fill="url(#e)" stroke-width=".91667"/><path d="m32.683223 15.814241c-.478856 0-.869067.391446-.869067.871816l.295097 99.574523c0 .48125.390212.87183.869067.87183h47.757773c.228564 0 .452784-.0924.614429-.25545l30.620618-30.133421c.16252-.163029.25464-.387085.25464-.616373l-.1518-69.421012c0-.480371-.38933-.871816-.86905-.871816l-78.521707-.02009z" fill="url(#d)" stroke-width=".91667"/><g transform="matrix(1.0156851 0 0 1.0156851 2.361219 -.516105)"><path d="m111.414 86.586c.25-.25-26.379-1.586-31.414-1.586-1.654 0-3 1.346-3 3 0 5.035 1.336 31.664 1.586 31.414z" fill="url(#a)" filter="url(#h)" opacity=".750685"/><path d="m111.414 86.586c.375-.375-21.97-.586-31.414-.586-1.103 0-2 .897-2 2 0 9.444.211 31.789.586 31.414z" filter="url(#j)" opacity=".2"/><path d="m111.414 86.586c.239-.239-21.607.414-31.414.414-.553 0-1 .447-1 1 0 9.807-.653 31.653-.414 31.414z" fill="url(#b)" filter="url(#i)" opacity=".1"/><path d="m79.721619 119.31106 31.505501-31.505504h-31.505501z" fill="url(#c)"/></g><g transform="translate(0 6)"><path d="m62.90625 4.1875c-.0748.016652-.36731.2329119-.75.59375-.12439.1080732-.276408.184082-.4375.21875h-.03125l-34.59375 32.125h-.03125c-.404497.379746-.624992.530192-.625 1.40625 0 .889949.238972 1.012421.65625 1.40625.000166.01042.000166.02083 0 .03125l8.15625 8.1875c.0031.0032.02809-.0032.03125 0 .775393.750006 1.716072.801364 2.5625.15625-.000166-.01042-.000166-.02083 0-.03125l15.84375-12.65625c.56972-.453708 1.580214.02182 1.59375.75l-.18157 52.384759c.000165.01042.000165.02084 0 .03125.0034.707102.08474 1.312746.21875 1.59375.134011.281004.133455.372189.71875.375h13.580776c1.25758-.006 1.962732-.711179 1.96875-1.96875-.000165-.01041-.000165-.02083 0-.03125l-.055456-52.384759c.01354-.728182 1.02403-1.203708 1.59375-.75l15.84375 12.65625c.000166.01042.000166.02083 0 .03125.0072.0055.02385-.0053.03125 0 .635246.459257 1.94339.382118 2.5-.15625.0032-.0032.02808.0032.03125 0l8.25-8.21875c-.000166-.01042-.000166-.02083 0-.03125.47093-.444438.56251-.813037.5625-1.375 0-.504109-.1439-.952202-.625-1.40625l-34.96875-32.4375c-.01042.0001657-.02083.0001657-.03125 0-.263417-.2505838-.605715-.4178493-.96875-.4375-.05197.00415-.104277.00415-.15625 0-.365007-.08515-.375087-.1320471-.6875-.0625z" fill="url(#o)" filter="url(#l)" transform="matrix(0 .81954313 -.81954313 0 78.191699 -3.634586)"/><path d="m62.875 3.15625c-.06032.008-.121049.047707-.1875.0625-.48362.1076597-.864129.5093782-1.21875.84375l-.09375-.09375-34.96875 32.4375c-.462378.436375-.93749.962612-.9375 2.125 0 1.162426.475217 1.688694.9375 2.125l8.15625 8.1875c.01038.01057.02069.02087.03125.03125 1.098694 1.062722 2.645963 1.131656 3.84375.21875.01056-.01038.02087-.02069.03125-.03125l15.84375-12.65625-.18157 52.384759c.0036.745803.0499 1.480613.3125 2.03125s.730849.902106 1.59375.90625h13.580776c1.723601-.0083 2.929252-1.213907 2.9375-2.9375l-.055456-52.384759 15.84375 12.65625c.01038.01057.02069.02087.03125.03125 1.07779.821452 2.838425.723401 3.8125-.21875.01056-.01038.02087-.02069.03125-.03125l8.25-8.21875c.69025-.651426.84376-1.384911.84375-2.09375 0-.709628-.21613-1.473688-.90625-2.125l-35-32.4375c-.434842-.4136573-.99446-.6550611-1.59375-.6875-.23915-.0557895-.515227-.1809924-.9375-.125z" fill="url(#n)" filter="url(#k)" opacity=".381188" transform="matrix(0 .81954313 -.81954313 0 78.191699 -3.634586)"/><path d="m73.857482 48.560553-26.996126 28.683393c-.06506.06894-.155662.108004-.250452.108004s-.185392-.03906-.250453-.108004l-6.749032-6.749035c-.118341-.122348-.129544-.312801-.026363-.448179l13.049887-16.318949-46.95889-.051678c-.188904-.000903-.341819-.153819-.342723-.342725v-10.123549c.000904-.188905.153819-.341819.342723-.342723l46.95889.05168-13.049887-16.318951c-.103181-.135377-.09198-.325829.02636-.448177l6.749032-6.749033c.06507-.06893.155661-.108011.250453-.108011.09479 0 .185392.03908.250452.108011l26.996126 28.683389c.193848.137321 0 .330692 0 .474539z" fill="url(#m)"/><path d="m73.93879 48.198472c-.0092-.03969-.04638-.09211-.09483-.126441l-26.994901-28.670236c-.06506-.06894-.15809-.09483-.252881-.09483-.09479 0-.156207.0259-.22127.09483l-1.171661 1.833378 25.256359 26.836858c.193848.137321 0 .330302 0 .474151l-25.256359 26.868469 1.171661 1.833379c.06507.06893.126479.09482.22127.09483.09479 0 .187821-.0259.252881-.09483l26.994902-28.701848c0-.107888.122091-.22865.09483-.34771z" fill="#fff"/></g></g></svg>

<?xml version="1.0" encoding="UTF-8" standalone="no"?>
<svg
   xmlns:dc="http://purl.org/dc/elements/1.1/"
   xmlns:cc="http://creativecommons.org/ns#"
   xmlns:rdf="http://www.w3.org/1999/02/22-rdf-syntax-ns#"
   xmlns:svg="http://www.w3.org/2000/svg"
   xmlns="http://www.w3.org/2000/svg"
   xmlns:sodipodi="http://sodipodi.sourceforge.net/DTD/sodipodi-0.dtd"
   xmlns:inkscape="http://www.inkscape.org/namespaces/inkscape"
   enable-background="new 0 0 128 128"
   height="24"
   viewBox="0 0 24 24"
   width="24"
   version="1.1"
   id="svg147"
   sodipodi:docname="lc_importdialog.svg"
   inkscape:version="0.92.4 (unknown)">
  <metadata
     id="metadata153">
    <rdf:RDF>
      <cc:Work
         rdf:about="">
        <dc:format>image/svg+xml</dc:format>
        <dc:type
           rdf:resource="http://purl.org/dc/dcmitype/StillImage" />
        <dc:title></dc:title>
      </cc:Work>
    </rdf:RDF>
  </metadata>
  <defs
     id="defs151" />
  <sodipodi:namedview
     pagecolor="#ffffff"
     bordercolor="#666666"
     borderopacity="1"
     objecttolerance="10"
     gridtolerance="10"
     guidetolerance="10"
     inkscape:pageopacity="0"
     inkscape:pageshadow="2"
     inkscape:window-width="640"
     inkscape:window-height="480"
     id="namedview149"
     showgrid="true"
     inkscape:zoom="21.92031"
     inkscape:cx="5.1790908"
     inkscape:cy="17.446151"
     inkscape:current-layer="g4913">
    <inkscape:grid
       type="xygrid"
       id="grid4892" />
  </sodipodi:namedview>
  <linearGradient
     id="a"
     gradientUnits="userSpaceOnUse"
     x1="88.591797"
     x2="71.262016"
     y1="96.592697"
     y2="79.262917">
    <stop
       offset="0"
       stop-color="#fff"
       id="stop2" />
    <stop
       offset="1"
       stop-color="#555753"
       id="stop4" />
  </linearGradient>
  <linearGradient
     id="b"
     gradientUnits="userSpaceOnUse"
     x1="85.219681"
     x2="61.336319"
     y1="93.219681"
     y2="69.336319">
    <stop
       offset="0"
       id="stop7" />
    <stop
       offset="1"
       stop-color="#393b38"
       id="stop9" />
  </linearGradient>
  <linearGradient
     id="c"
     gradientUnits="userSpaceOnUse"
     x1="96"
     x2="88.000198"
     y1="104"
     y2="96.000198">
    <stop
       offset="0"
       stop-color="#888a85"
       id="stop12" />
    <stop
       offset=".0072"
       stop-color="#8c8e89"
       id="stop14" />
    <stop
       offset=".0673"
       stop-color="#abaca9"
       id="stop16" />
    <stop
       offset=".1347"
       stop-color="#c5c6c4"
       id="stop18" />
    <stop
       offset=".2115"
       stop-color="#dbdbda"
       id="stop20" />
    <stop
       offset=".3012"
       stop-color="#ebebeb"
       id="stop22" />
    <stop
       offset=".4122"
       stop-color="#f7f7f6"
       id="stop24" />
    <stop
       offset=".5679"
       stop-color="#fdfdfd"
       id="stop26" />
    <stop
       offset="1"
       stop-color="#fff"
       id="stop28" />
  </linearGradient>
  <radialGradient
     id="d"
     cx="102"
     cy="112.3047"
     gradientTransform="matrix(0.86906733,0,0,0.87181541,13.636886,10.31457)"
     gradientUnits="userSpaceOnUse"
     r="139.55859">
    <stop
       offset="0"
       stop-color="#535557"
       id="stop31" />
    <stop
       offset=".11366145"
       stop-color="#898a8c"
       id="stop33" />
    <stop
       offset=".20296688"
       stop-color="#ececec"
       id="stop35" />
    <stop
       offset=".2363"
       stop-color="#fafafa"
       id="stop37" />
    <stop
       offset=".2722"
       stop-color="#fff"
       id="stop39" />
    <stop
       offset=".5313"
       stop-color="#fafafa"
       id="stop41" />
    <stop
       offset=".8449"
       stop-color="#ebecec"
       id="stop43" />
    <stop
       offset="1"
       stop-color="#e1e2e3"
       id="stop45" />
  </radialGradient>
  <radialGradient
     id="e"
     cx="102.99968"
     cy="109.0034"
     gradientUnits="userSpaceOnUse"
     r="123.92238">
    <stop
       offset="0"
       stop-color="#3e3e3e"
       id="stop48" />
    <stop
       offset=".0151"
       stop-color="#505050"
       id="stop50" />
    <stop
       offset=".0558"
       stop-color="#7e7e7e"
       id="stop52" />
    <stop
       offset=".1357"
       stop-color="#c6c6c6"
       id="stop54" />
    <stop
       offset=".20990001"
       stop-color="#f1f1f1"
       id="stop56" />
    <stop
       offset=".24349999"
       stop-color="#fcfcfc"
       id="stop58" />
    <stop
       offset=".2722"
       stop-color="#fff"
       id="stop60" />
  </radialGradient>
  <filter
     id="f">
    <feGaussianBlur
       stdDeviation="1.0394514"
       id="feGaussianBlur63" />
  </filter>
  <filter
     id="g">
    <feGaussianBlur
       stdDeviation=".50063244"
       id="feGaussianBlur66" />
  </filter>
  <filter
     id="h">
    <feGaussianBlur
       stdDeviation=".40750996"
       id="feGaussianBlur69" />
  </filter>
  <filter
     id="i">
    <feGaussianBlur
       stdDeviation=".4901192"
       id="feGaussianBlur72" />
  </filter>
  <filter
     id="j">
    <feGaussianBlur
       stdDeviation=".90565481"
       id="feGaussianBlur75" />
  </filter>
  <filter
     id="k">
    <feGaussianBlur
       stdDeviation="1.7999096"
       id="feGaussianBlur78" />
  </filter>
  <filter
     id="l">
    <feGaussianBlur
       stdDeviation=".89030997"
       id="feGaussianBlur81" />
  </filter>
  <linearGradient
     id="m"
     gradientTransform="matrix(0,0.81954313,-0.81954313,0,76.958576,-3.634586)"
     gradientUnits="userSpaceOnUse"
     x1="82.834549"
     x2="82.834549"
     y1="62.217617"
     y2="10.156634">
    <stop
       offset="0"
       stop-color="#fefefe"
       id="stop84" />
    <stop
       offset=".23920465"
       stop-color="#e9eaea"
       id="stop86" />
    <stop
       offset="1"
       stop-color="#fdfdfd"
       id="stop88" />
  </linearGradient>
  <linearGradient
     id="n"
     gradientTransform="matrix(0,-1.0293895,1.0293895,0,11.93834,80.22496)"
     gradientUnits="userSpaceOnUse"
     x1="9.7097082"
     x2="66.606155"
     y1="37.262951"
     y2="37.262951">
    <stop
       offset="0"
       id="stop91" />
    <stop
       offset=".60089153"
       id="stop93" />
    <stop
       offset=".60089153"
       stop-opacity=".588235"
       id="stop95" />
    <stop
       offset=".74199998"
       stop-color="#3b3b3b"
       stop-opacity=".72"
       id="stop97" />
    <stop
       offset="1"
       stop-color="#fff"
       stop-opacity="0"
       id="stop99" />
  </linearGradient>
  <linearGradient
     id="o"
     gradientTransform="matrix(0,-1.0293895,1.0293895,0,11.93834,80.22496)"
     gradientUnits="userSpaceOnUse"
     x1="1.0677871"
     x2="62.728462"
     y1="41.08411"
     y2="41.08411">
    <stop
       offset="0"
       id="stop102" />
    <stop
       offset=".06517398"
       id="stop104" />
    <stop
       offset=".56999999"
       stop-opacity=".588235"
       id="stop106" />
    <stop
       offset=".74199998"
       stop-color="#3b3b3b"
       stop-opacity=".72"
       id="stop108" />
    <stop
       offset="1"
       stop-color="#fff"
       stop-opacity="0"
       id="stop110" />
  </linearGradient>
  <g
     id="g4913"
     transform="scale(0.1875)">
    <path
       id="path115"
       transform="matrix(0.92495844,0,0,0.91967301,3.585144,6.331917)"
       d="m 23.034102,2.7510856 0.04082,125.8749744 h 61.131184 c 0.53,0 1.039,-0.211 1.414,-0.586 L 124.27636,89.579469 c 0.375,-0.375 0.586,-0.884 0.586,-1.414 l 0.0341,-85.4143834 H 23.034106 Z"
       inkscape:connector-curvature="0"
       style="opacity:0.55342503;filter:url(#f)" />
    <path
       id="path117"
       transform="matrix(0.92495844,0,0,0.91967301,3.585144,6.331917)"
       d="m 23.034102,2.7823031 0.04082,125.8437569 h 61.131184 c 0.53,0 1.039,-0.211 1.414,-0.586 L 124.27636,89.579469 c 0.375,-0.375 0.586,-0.884 0.586,-1.414 l 0.0341,-85.3831659 z"
       inkscape:connector-curvature="0"
       style="opacity:0.30684904;filter:url(#f)" />
    <path
       id="path119"
       transform="matrix(0.92495844,0,0,0.91967301,3.585144,6.331917)"
       d="M 24.954101,4.7134391 V 126.49578 l 58.676001,-1e-4 c 0.53,0 1.039,-0.211 1.414,-0.586 L 122.35636,88.511156 c 0.375,-0.375 0.586,-0.884 0.586,-1.414 l 0.0341,-82.3837169 z"
       inkscape:connector-curvature="0"
       style="opacity:0.89589;filter:url(#g)" />
    <path
       id="path121"
       transform="matrix(0.92495844,0,0,0.91967301,3.585144,6.331917)"
       d="m 23.034102,3.7478203 0.04082,124.8782397 h 61.131184 c 0.53,0 1.039,-0.211 1.414,-0.586 L 124.27636,89.579469 c 0.375,-0.375 0.586,-0.884 0.586,-1.414 l 0.0341,-84.4176487 H 23.034106 Z"
       inkscape:connector-curvature="0"
       style="opacity:0.30684904;filter:url(#f)" />
    <path
       id="path123"
       d="M 26.666653,10.666739 V 122.66667 h 54.318295 c 0.470619,0 0.92259,-0.18736 1.255576,-0.52035 L 116.78137,87.816225 c 0.33299,-0.332985 0.52034,-0.784957 0.52034,-1.255576 l 0.0315,-75.89391 z"
       style="fill:url(#e);stroke-width:0.91667002"
       inkscape:connector-curvature="0" />
    <path
       id="path125"
       d="m 32.683223,15.814241 c -0.478856,0 -0.869067,0.391446 -0.869067,0.871816 l 0.295097,99.574523 c 0,0.48125 0.390212,0.87183 0.869067,0.87183 h 47.757773 c 0.228564,0 0.452784,-0.0924 0.614429,-0.25545 L 111.97114,86.743539 c 0.16252,-0.163029 0.25464,-0.387085 0.25464,-0.616373 l -0.1518,-69.421012 c 0,-0.480371 -0.38933,-0.871816 -0.86905,-0.871816 l -78.521707,-0.02009 z"
       style="fill:url(#d);stroke-width:0.91667002"
       inkscape:connector-curvature="0" />
    <g
       id="g135"
       transform="matrix(1.0156851,0,0,1.0156851,2.361219,-0.516105)">
      <path
         id="path127"
         d="M 111.414,86.586 C 111.664,86.336 85.035,85 80,85 c -1.654,0 -3,1.346 -3,3 0,5.035 1.336,31.664 1.586,31.414 z"
         style="opacity:0.75068497;fill:url(#a);filter:url(#h)"
         inkscape:connector-curvature="0" />
      <path
         id="path129"
         d="M 111.414,86.586 C 111.789,86.211 89.444,86 80,86 c -1.103,0 -2,0.897 -2,2 0,9.444 0.211,31.789 0.586,31.414 z"
         inkscape:connector-curvature="0"
         style="opacity:0.2;filter:url(#j)" />
      <path
         id="path131"
         d="M 111.414,86.586 C 111.653,86.347 89.807,87 80,87 c -0.553,0 -1,0.447 -1,1 0,9.807 -0.653,31.653 -0.414,31.414 z"
         style="opacity:0.1;fill:url(#b);filter:url(#i)"
         inkscape:connector-curvature="0" />
      <path
         id="path133"
         d="M 79.721619,119.31106 111.22712,87.805556 H 79.721619 Z"
         style="fill:url(#c)"
         inkscape:connector-curvature="0" />
    </g>
    <g
       id="g145"
       transform="translate(0,6)">
      <path
         id="path137"
         transform="matrix(0,0.81954313,-0.81954313,0,78.191699,-3.634586)"
         d="m 62.90625,4.1875 c -0.0748,0.016652 -0.36731,0.2329119 -0.75,0.59375 C 62.03186,4.8893232 61.879842,4.965332 61.71875,5 H 61.6875 L 27.09375,37.125 H 27.0625 c -0.404497,0.379746 -0.624992,0.530192 -0.625,1.40625 0,0.889949 0.238972,1.012421 0.65625,1.40625 1.66e-4,0.01042 1.66e-4,0.02083 0,0.03125 l 8.15625,8.1875 c 0.0031,0.0032 0.02809,-0.0032 0.03125,0 0.775393,0.750006 1.716072,0.801364 2.5625,0.15625 -1.66e-4,-0.01042 -1.66e-4,-0.02083 0,-0.03125 L 53.6875,35.625 c 0.56972,-0.453708 1.580214,0.02182 1.59375,0.75 l -0.18157,52.384759 c 1.65e-4,0.01042 1.65e-4,0.02084 0,0.03125 0.0034,0.707102 0.08474,1.312746 0.21875,1.59375 0.134011,0.281004 0.133455,0.372189 0.71875,0.375 h 13.580776 c 1.25758,-0.006 1.962732,-0.711179 1.96875,-1.96875 -1.65e-4,-0.01041 -1.65e-4,-0.02083 0,-0.03125 L 71.53125,36.375 c 0.01354,-0.728182 1.02403,-1.203708 1.59375,-0.75 l 15.84375,12.65625 c 1.66e-4,0.01042 1.66e-4,0.02083 0,0.03125 0.0072,0.0055 0.02385,-0.0053 0.03125,0 0.635246,0.459257 1.94339,0.382118 2.5,-0.15625 0.0032,-0.0032 0.02808,0.0032 0.03125,0 l 8.25,-8.21875 c -1.66e-4,-0.01042 -1.66e-4,-0.02083 0,-0.03125 0.47093,-0.444438 0.56251,-0.813037 0.5625,-1.375 0,-0.504109 -0.1439,-0.952202 -0.625,-1.40625 L 64.75,4.6875 c -0.01042,1.657e-4 -0.02083,1.657e-4 -0.03125,0 C 64.455333,4.4369162 64.113035,4.2696507 63.75,4.25 63.69803,4.25415 63.645723,4.25415 63.59375,4.25 63.228743,4.16485 63.218663,4.1179529 62.90625,4.1875 Z"
         style="fill:url(#o);filter:url(#l)"
         inkscape:connector-curvature="0" />
      <path
         id="path139"
         transform="matrix(0,0.81954313,-0.81954313,0,78.191699,-3.634586)"
         d="m 62.875,3.15625 c -0.06032,0.008 -0.121049,0.047707 -0.1875,0.0625 -0.48362,0.1076597 -0.864129,0.5093782 -1.21875,0.84375 L 61.375,3.96875 26.40625,36.40625 c -0.462378,0.436375 -0.93749,0.962612 -0.9375,2.125 0,1.162426 0.475217,1.688694 0.9375,2.125 l 8.15625,8.1875 c 0.01038,0.01057 0.02069,0.02087 0.03125,0.03125 1.098694,1.062722 2.645963,1.131656 3.84375,0.21875 0.01056,-0.01038 0.02087,-0.02069 0.03125,-0.03125 L 54.3125,36.40625 54.13093,88.791009 c 0.0036,0.745803 0.0499,1.480613 0.3125,2.03125 0.2626,0.550637 0.730849,0.902106 1.59375,0.90625 h 13.580776 c 1.723601,-0.0083 2.929252,-1.213907 2.9375,-2.9375 L 72.5,36.40625 88.34375,49.0625 c 0.01038,0.01057 0.02069,0.02087 0.03125,0.03125 1.07779,0.821452 2.838425,0.723401 3.8125,-0.21875 0.01056,-0.01038 0.02087,-0.02069 0.03125,-0.03125 l 8.25,-8.21875 c 0.69025,-0.651426 0.84376,-1.384911 0.84375,-2.09375 0,-0.709628 -0.21613,-1.473688 -0.90625,-2.125 l -35,-32.4375 C 64.971408,3.5550927 64.41179,3.3136889 63.8125,3.28125 63.57335,3.2254605 63.297273,3.1002576 62.875,3.15625 Z"
         style="opacity:0.38118801;fill:url(#n);filter:url(#k)"
         inkscape:connector-curvature="0" />
      <path
         id="path141"
         d="M 73.857482,48.560553 46.861356,77.243946 c -0.06506,0.06894 -0.155662,0.108004 -0.250452,0.108004 -0.09479,0 -0.185392,-0.03906 -0.250453,-0.108004 L 39.611419,70.494911 C 39.493078,70.372563 39.481875,70.18211 39.585056,70.046732 L 52.634943,53.727783 5.676053,53.676105 C 5.487149,53.675202 5.334234,53.522286 5.33333,53.33338 V 43.209831 c 9.04e-4,-0.188905 0.153819,-0.341819 0.342723,-0.342723 l 46.95889,0.05168 -13.049887,-16.318951 c -0.103181,-0.135377 -0.09198,-0.325829 0.02636,-0.448177 l 6.749032,-6.749033 c 0.06507,-0.06893 0.155661,-0.108011 0.250453,-0.108011 0.09479,0 0.185392,0.03908 0.250452,0.108011 l 26.996126,28.683389 c 0.193848,0.137321 0,0.330692 0,0.474539 z"
         style="fill:url(#m)"
         inkscape:connector-curvature="0" />
      <path
         id="path143"
         d="m 73.93879,48.198472 c -0.0092,-0.03969 -0.04638,-0.09211 -0.09483,-0.126441 L 46.849059,19.401795 c -0.06506,-0.06894 -0.15809,-0.09483 -0.252881,-0.09483 -0.09479,0 -0.156207,0.0259 -0.22127,0.09483 l -1.171661,1.833378 25.256359,26.836858 c 0.193848,0.137321 0,0.330302 0,0.474151 l -25.256359,26.868469 1.171661,1.833379 c 0.06507,0.06893 0.126479,0.09482 0.22127,0.09483 0.09479,0 0.187821,-0.0259 0.252881,-0.09483 L 73.843961,48.546182 c 0,-0.107888 0.122091,-0.22865 0.09483,-0.34771 z"
         inkscape:connector-curvature="0"
         style="fill:#ffffff" />
    </g>
  </g>
</svg>
